X:109
T:Reels simple chords 234
M:3/4
L:1/8
K:G
(3DEF [G2G,2B,2D2] GF | GA Bc [dG,B,D]B | eB dB AG | [BE,G,B,]E ED EF | GA [BE,G,B,]G AF |
GF ED [G2G,2B,2D2] | GF GA Bc | [dG,B,D]B eB dB | AG [BE,G,B,]E ED |
EF GA [BD,F,A,C]G | AF G2 (3DEF | [G2G,2B,2D2] GF GA | Bc [dG,B,D]B eB |
dB AG [BE,G,B,]E | ED EF GA | [BE,G,B,]G AF GF | ED [G2G,2B,2D2] GF |
GA Bc [dG,B,D]B | eB dB AG | [BE,G,B,]E ED EF | GA [BD,F,A,C]G AF |
G2 B2 [BE,G,B,]e | ed2< e2f | [gE,G,B,]e af gf | ed [AD,F,A,]d d^c |
d2>e2 [fD,F,A,]d | af gf ed | [BC,E,G,]e ed2< e2 |f [gC,E,G,]e af |
gf ed [BG,B,D]A | GF EF GA | [BD,F,A,C]G AF G2 | B2 [BE,G,B,]e ed |
e2>f2 [gE,G,B,]e | af gf ed | [AD,F,A,]d d^c2< d2 |e [fD,F,A,]d af |
gf ed [BC,E,G,]e | ed2< e2f | [gC,E,G,]e af gf | ed [BG,B,D]A GF |
EF GA [BD,F,A,C]G | AF G2 |


